Programm/icons/printer.svg

<svg xmlns="http://www.w3.org/2000/svg" viewBox="0 0 20 20"><path d="M4 16H0V6h20v10h-4v4H4v-4zm2-4v6h8v-6H6zM4 0h12v5H4V0zM2 8v2h2V8H2zm4 0v2h2V8H6z"/></svg>

<?xml version="1.0" encoding="UTF-8" standalone="no"?>
<!DOCTYPE svg PUBLIC "-//W3C//DTD SVG 1.1//EN" "http://www.w3.org/Graphics/SVG/1.1/DTD/svg11.dtd">
<svg width="100%" height="100%" viewBox="0 0 512 512" version="1.1" xmlns="http://www.w3.org/2000/svg" xmlns:xlink="http://www.w3.org/1999/xlink" xml:space="preserve" xmlns:serif="http://www.serif.com/" style="fill-rule:evenodd;clip-rule:evenodd;stroke-linejoin:round;stroke-miterlimit:2;">
    <g transform="matrix(25.6,0,0,25.6,0,0)">
        <path d="M4,16L0,16L0,6L20,6L20,16L16,16L16,20L4,20L4,16ZM6,12L6,18L14,18L14,12L6,12ZM4,0L16,0L16,5L4,5L4,0ZM2,8L2,10L4,10L4,8L2,8ZM6,8L6,10L8,10L8,8L6,8Z" style="fill-rule:nonzero;"/>
    </g>
</svg>
